usr/share/icons/biglinux-icons-material/symbolic/status/input-keyboard-battery.svg

<?xml version="1.0" encoding="UTF-8"?>
<svg xmlns="http://www.w3.org/2000/svg" xmlns:xlink="http://www.w3.org/1999/xlink" xmlns:cc="http://creativecommons.org/ns#" xmlns:dc="http://purl.org/dc/elements/1.1/" xmlns:rdf="http://www.w3.org/1999/02/22-rdf-syntax-ns#" xmlns:inkscape="http://www.inkscape.org/namespaces/inkscape" xmlns:sodipodi="http://sodipodi.sourceforge.net/DTD/sodipodi-0.dtd" width="22" height="22">
    <style type="text/css" id="current-color-scheme">.ColorScheme-Text {
        color:#31363b;
      }
      .ColorScheme-Background {
        color:#eff0f1;
      }
      .ColorScheme-Highlight {
        color:#3daee9;
      }
      .ColorScheme-ViewText {
        color:#31363b;
      }
      .ColorScheme-ViewBackground {
        color:#fcfcfc;
      }
      .ColorScheme-ViewHover {
        color:#93cee9;
      }
      .ColorScheme-ViewFocus{
        color:#3daee9;
      }
      .ColorScheme-ButtonText {
        color:#31363b;
      }
      .ColorScheme-ButtonBackground {
        color:#eff0f1;
      }
      .ColorScheme-ButtonHover {
        color:#93cee9;
      }
      .ColorScheme-ButtonFocus{
        color:#3daee9;
      }</style>
    <g id="22-22-input-keyboard-battery" transform="translate(-332,-396.36218) translate(-16,-138)">
        <rect x="348" y="534.36218" width="22" height="22" ry="0" fill="none"/>
        <path class="ColorScheme-Text" transform="translate(332,396.36218)" d="m20 141v14l7 2 7-2v-5h-1v2h-12v-10h8v-1zm12 0-2 5h2v3l2-5h-2zm-5.5625 3-2.4375 6h1.074219l0.40625-1h3.039062l0.40625 1h1.074219l-2.439453-6h-0.537109l-0.023438 0.00977-0.023438-0.00977zm0.5625 1.25781 1.113281 2.74219h-2.226562zm-6 7.74219h12v1h-12z" fill="currentColor"/>
    </g>
</svg>

<?xml version="1.0" encoding="UTF-8" standalone="no"?>
<svg
   width="22"
   height="22"
   version="1.1"
   viewBox="0 0 22 22"
   id="svg372"
   xmlns="http://www.w3.org/2000/svg"
   xmlns:svg="http://www.w3.org/2000/svg"
   xmlns:rdf="http://www.w3.org/1999/02/22-rdf-syntax-ns#"
   xmlns:cc="http://creativecommons.org/ns#"
   xmlns:dc="http://purl.org/dc/elements/1.1/">
  <metadata
     id="metadata376">
    <rdf:RDF>
      <cc:Work
         rdf:about="">
        <dc:format>image/svg+xml</dc:format>
        <dc:type
           rdf:resource="http://purl.org/dc/dcmitype/StillImage" />
      </cc:Work>
    </rdf:RDF>
  </metadata>
  <defs
     id="defs3">
    <style
       id="current-color-scheme"
       type="text/css">.ColorScheme-Text {
        color:#31363b;
      }
      .ColorScheme-Background {
        color:#eff0f1;
      }
      .ColorScheme-Highlight {
        color:#3daee9;
      }
      .ColorScheme-ViewText {
        color:#31363b;
      }
      .ColorScheme-ViewBackground {
        color:#fcfcfc;
      }
      .ColorScheme-ViewHover {
        color:#93cee9;
      }
      .ColorScheme-ViewFocus{
        color:#3daee9;
      }
      .ColorScheme-ButtonText {
        color:#31363b;
      }
      .ColorScheme-ButtonBackground {
        color:#eff0f1;
      }
      .ColorScheme-ButtonHover {
        color:#93cee9;
      }
      .ColorScheme-ButtonFocus{
        color:#3daee9;
      }</style>
  </defs>
  <g
     id="22-22-input-keyboard-battery"
     transform="translate(-348,-534.35999)">
    <rect
       x="348"
       y="534.35999"
       width="22"
       height="22"
       ry="0"
       fill="none"
       id="rect12" />
    <path
       class="ColorScheme-Text"
       transform="translate(332,396.36)"
       d="m 20,141 v 14 l 7,2 7,-2 v -5 h -1 v 2 H 21 v -10 h 8 v -1 z m 12,0 -2,5 h 2 v 3 l 2,-5 H 32 Z M 26.4375,144 24,150 h 1.0742 l 0.40625,-1 h 3.0391 l 0.40625,1 H 30 l -2.4395,-6 H 27.02339 L 26.99995,144.01 26.97651,144 Z M 27,145.2578 28.1133,148 H 25.8867 Z M 21,153 h 12 v 1 H 21 Z"
       fill="currentColor"
       id="path14" />
  </g>
</svg>
